X:460
T: Move Up
S: "Music of Ireland - The Big Session" (DJ Taylor)
Z: B.Black
L: 1/8
M: 6/8
R: jig
K: G
d|gdB cAF|GBA G2 A|DGB c3|B/c/dB AFD|
B3 cBc|dge f/g/af|gaf gdB|1 cAF G2 :|2\
cAF G2 ||
A|B2 c dBG|GBd gdB|=fef cA=F|=FAc edc|
BAB cBc|dge f/g/af|gaf gdB|cAF G2 :|
